src/telerik-icons/solid/cell-split-horizontally.svg

<?xml version="1.0" encoding="utf-8"?>
<svg xmlns="http://www.w3.org/2000/svg" width="512" height="512" viewBox="0 0 512 512">
  <path d="M32 32v416h416V32H32zm32 32h160v64H64V64zm160 160h-64v-64h64v64zM64 160h64v64H64v-64zm0 96h160v64H64v-64zm0 160v-64h160v64H64zm192-256h64v64h-64v-64zm160 256H256v-64h160v64zm0-96H256v-64h160v64zm0-96h-64v-64h64v64zm0-96H256V64h160v64z"/>
</svg>

<?xml version="1.0" encoding="utf-8"?>
<!-- Generator: Adobe Illustrator 19.2.1, SVG Export Plug-In . SVG Version: 6.00 Build 0)  -->
<svg xmlns="http://www.w3.org/2000/svg" width="512" height="512" viewBox="0 0 512 512">
<path d="M32,32v416h416V32H32z M64,64h160v64H64V64z M224,224h-64v-64h64V224z M64,160h64v64H64V160z M64,256h160v64H64V256z
	 M64,416v-64h160v64H64z M256,160h64v64h-64V160z M416,416H256v-64h160V416z M416,320H256v-64h160V320z M416,224h-64v-64h64V224z
	 M416,128H256V64h160V128z" />
</svg>
